packages/icons/svg/32/Collapse.svg

<svg width="32" height="32" viewBox="0 0 32 32" fill="none" xmlns="http://www.w3.org/2000/svg">
<path d="M21 11H24C24.5523 11 25 11.4477 25 12C25 12.5523 24.5523 13 24 13H19V8C19 7.44772 19.4477 7 20 7C20.5523 7 21 7.44772 21 8V11Z" fill="#858585"/>
<path d="M8 21H11V24C11 24.5523 11.4477 25 12 25C12.5523 25 13 24.5523 13 24V19H8C7.44772 19 7 19.4477 7 20C7 20.5523 7.44772 21 8 21Z" fill="#858585"/>
<path d="M21 24V21H24C24.5523 21 25 20.5523 25 20C25 19.4477 24.5523 19 24 19H19V24C19 24.5523 19.4477 25 20 25C20.5523 25 21 24.5523 21 24Z" fill="#858585"/>
<path d="M11 8V11H8C7.44772 11 7 11.4477 7 12C7 12.5523 7.44772 13 8 13H13V8C13 7.44772 12.5523 7 12 7C11.4477 7 11 7.44772 11 8Z" fill="#858585"/>
</svg>

<svg width="32" height="32" fill="none" xmlns="http://www.w3.org/2000/svg" viewBox="0 0 32 32"><path d="M21 11h3a1 1 0 110 2h-5V8a1 1 0 112 0v3zM8 21h3v3a1 1 0 102 0v-5H8a1 1 0 100 2zM21 24v-3h3a1 1 0 100-2h-5v5a1 1 0 102 0zM11 8v3H8a1 1 0 100 2h5V8a1 1 0 10-2 0z" fill="currentColor"></path></svg>
